Icons/UI_Category/p.svg

<svg xmlns="http://www.w3.org/2000/svg" xml:space="preserve" width="693" height="673" overflow="hidden"><defs><clipPath id="a"><path d="M1864 1125h693v673h-693z"/></clipPath></defs><g fill-rule="evenodd" clip-path="url(#a)" transform="translate(-1864 -1125)"><path fill="#ccd6dd" d="m2325.75 1664 96.25-96.25L1979.25 1125H1883v96.25Z"/><path fill="#9aaab4" d="M1883 1125v96.25L2325.86 1664l48.14-48.12Z"/><path fill="#e22b00" d="M2506.81 1736.91c5.45-5.48 8.79-12.08 10.19-18.68l-100.6-119.55-13.46-13.54c-10.82-10.89-30.13-9.13-43.14 3.95l-11.78 11.81c-13 13.07-14.74 32.48-3.92 43.36l14.22 14.3L2476.35 1759c6.62-1.39 13.21-4.77 18.69-10.27z"/><path fill="red" d="M2506.81 1737.18c5.45-5.48 8.79-12.08 10.19-18.69l-25.76-30.62-14.14 71.13c6.35-1.49 12.69-4.69 17.94-10zm-63.53-106.31-17.04 85.75 24.18 20.58 15.74-79.16Zm-26.88-31.99-13.46-13.55c-1.84-1.86-3.99-3.21-6.25-4.33l-18.77 94.45 24.18 20.59 18.37-92.35zm-46.08-17.15a39.1 39.1 0 0 0-10.52 7.57l-11.78 11.8c-4.88 4.9-8.16 10.7-9.81 16.6-2.73 9.85-.88 19.99 5.89 26.78l11.44 11.51zq0-.03 0 0"/><path fill="red" d="M2451 1745c0-29.27 23.73-53 53-53s53 23.73 53 53-23.73 53-53 53-53-23.73-53-53m-16.83-210.17c7.77 7.77 7.77 20.38 0 28.13l-117.21 117.21c-7.77 7.77-20.36 7.77-28.13 0s-7.77-20.36 0-28.13l117.21-117.21c7.74-7.77 20.36-7.77 28.13 0"/><path fill="red" d="M2255 1680.5c0-18.5 15-33.5 33.5-33.5s33.5 15 33.5 33.5-15 33.5-33.5 33.5-33.5-15-33.5-33.5m145-145.5c0-18.78 15.22-34 34-34s34 15.22 34 34-15.22 34-34 34-34-15.22-34-34"/><path fill="#e22b00" d="M2269 1680.5c0-10.77 8.73-19.5 19.5-19.5s19.5 8.73 19.5 19.5-8.73 19.5-19.5 19.5-19.5-8.73-19.5-19.5m146-145.5c0-10.49 8.51-19 19-19s19 8.51 19 19-8.51 19-19 19-19-8.51-19-19m101.67 135.29c5.78 5.72 5.78 15 0 20.7l-67.43 66.72c-5.78 5.72-15.12 5.72-20.9 0a14.523 14.523 0 0 1 0-20.7l67.42-66.72c5.76-5.72 15.13-5.72 20.91 0"/><path fill="#ccd6dd" d="m2094.43 1664-96.43-96.25L2441.57 1125H2538v96.25Z"/><path fill="#9aaab4" d="M2538 1125v96.25L2095.14 1664l-48.14-48.12Z"/><path fill="#e22b00" d="M1913.25 1736.91c-5.48-5.48-8.84-12.08-10.25-18.68l101.17-119.55 13.53-13.54c10.89-10.89 30.31-9.13 43.39 3.95l11.83 11.81c13.07 13.07 14.83 32.48 3.94 43.36l-14.3 14.3-118.7 100.44c-6.66-1.39-13.28-4.77-18.8-10.27z"/><path fill="red" d="M1913.25 1737.18c-5.48-5.48-8.84-12.08-10.25-18.69l25.9-30.62 14.23 71.13c-6.39-1.49-12.76-4.69-18.05-10zm63.88-106.31 17.14 85.75-24.32 20.58-15.82-79.16Zm27.04-31.99 13.53-13.55c1.86-1.86 4.02-3.21 6.29-4.33l18.88 94.45-24.32 20.59-18.47-92.35zm46.34-17.15c3.77 1.84 7.38 4.35 10.58 7.57l11.83 11.82c4.9 4.9 8.2 10.7 9.86 16.6 2.74 9.85.89 19.99-5.92 26.78l-11.5 11.51zq0-.03 0 0"/><path fill="red" d="M1864 1745c0-29.27 23.73-53 53-53s53 23.73 53 53-23.73 53-53 53-53-23.73-53-53m122.83-210.17c-7.77 7.77-7.77 20.38 0 28.13l117.21 117.21c7.77 7.77 20.36 7.77 28.13 0s7.77-20.36 0-28.13l-117.21-117.21c-7.74-7.77-20.36-7.77-28.13 0"/><path fill="red" d="M2098 1680.5c0-18.5 15.22-33.5 34-33.5s34 15 34 33.5-15.22 33.5-34 33.5-34-15-34-33.5M1953 1535c0-18.78 15-34 33.5-34s33.5 15.22 33.5 34-15 34-33.5 34-33.5-15.22-33.5-34"/><path fill="#e22b00" d="M2113 1680.5c0-10.77 8.51-19.5 19-19.5s19 8.73 19 19.5-8.51 19.5-19 19.5-19-8.73-19-19.5M1967 1535c0-10.49 8.73-19 19.5-19s19.5 8.51 19.5 19-8.73 19-19.5 19-19.5-8.51-19.5-19m-62.71 135.29c-5.72 5.72-5.72 15 0 20.7l66.73 66.72c5.72 5.72 14.97 5.72 20.69 0s5.72-14.98 0-20.7l-66.73-66.72c-5.7-5.72-14.97-5.72-20.69 0"/><path fill="red" d="m2367 1199.6 6.09 3.85c4.85 4.55 7.85 10.84 7.85 17.78 0 13.88-12 25.14-26.81 25.14-7.4 0-14.11-2.81-18.96-7.36l-2.33-5.28Zm163.45-8.9 7.55 1.43v29.1l-17.83 17.81-.15-.03c-9.63-3.82-16.38-12.75-16.38-23.17 0-13.88 12.01-25.14 26.81-25.14m-507.58-22.19 31.11 31.07-4.6 10.42c-4.85 4.55-11.55 7.36-18.96 7.36-14.81 0-26.81-11.26-26.81-25.14 0-10.42 6.75-19.35 16.38-23.17Zm418.81-43.51H2538v53.17l-23.5 14.86c-9.79 3.88-20.56 6.03-31.87 6.03l-6.78-.64 4.17 9.43c0 13.88-12.01 25.14-26.82 25.14-14.8 0-26.81-11.26-26.81-25.14 0-6.95 3-13.23 7.86-17.78l5.92-3.74-15.43-9.76-14.5-20.16Zm-487.24 0h24.88l19.94 19.92-2.84 6.43c-4.85 4.55-11.55 7.36-18.95 7.36-14.81 0-26.82-11.26-26.82-25.14Zm-71.44 0h44.35l12.96 8.2c14.82 13.89 23.98 33.08 23.98 54.28l-3.67 17.07 5.95-1.13c14.81 0 26.81 11.25 26.81 25.14s-12 25.14-26.81 25.14c-7.4 0-14.11-2.81-18.96-7.36l-4.03-9.12-3.27 4.55-22.5 14.23-34.81-34.77Z"/></g></svg>

<svg width="693" height="673" xmlns="http://www.w3.org/2000/svg" xmlns:xlink="http://www.w3.org/1999/xlink" xml:space="preserve" overflow="hidden"><defs><clipPath id="clip0"><rect x="1864" y="1125" width="693" height="673"/></clipPath></defs><g clip-path="url(#clip0)" transform="translate(-1864 -1125)"><path d="M2325.75 1664 2422 1567.75 1979.25 1125 1883 1125 1883 1221.25Z" fill="#CCD6DD" fill-rule="evenodd"/><path d="M1883 1125 1883 1221.25 2325.86 1664 2374 1615.88Z" fill="#9AAAB4" fill-rule="evenodd"/><path d="M2506.81 1736.91C2512.26 1731.43 2515.6 1724.83 2517 1718.23L2416.4 1598.68 2402.94 1585.14C2392.12 1574.25 2372.81 1576.01 2359.8 1589.09L2348.02 1600.9C2335.02 1613.97 2333.28 1633.38 2344.1 1644.26L2358.32 1658.56 2476.35 1759C2482.97 1757.61 2489.56 1754.23 2495.04 1748.73L2506.81 1736.91Z" fill="#E22B00" fill-rule="evenodd"/><path d="M2506.81 1737.18C2512.26 1731.7 2515.6 1725.1 2517 1718.49L2491.24 1687.87 2477.1 1759C2483.45 1757.51 2489.79 1754.31 2495.04 1749L2506.81 1737.18ZM2443.28 1630.87 2426.24 1716.62 2450.42 1737.2 2466.16 1658.04ZM2416.4 1598.88 2402.94 1585.33C2401.1 1583.47 2398.95 1582.12 2396.69 1581L2377.92 1675.45 2402.1 1696.04 2420.47 1603.69 2416.4 1598.88ZM2370.32 1581.73C2366.58 1583.57 2362.99 1586.08 2359.8 1589.3L2348.02 1601.1C2343.14 1606 2339.86 1611.8 2338.21 1617.7 2335.48 1627.55 2337.33 1637.69 2344.1 1644.48L2355.54 1655.99 2370.32 1581.73C2370.32 1581.71 2370.32 1581.71 2370.32 1581.73Z" fill="#FF0000" fill-rule="evenodd"/><path d="M2451 1745C2451 1715.73 2474.73 1692 2504 1692 2533.27 1692 2557 1715.73 2557 1745 2557 1774.27 2533.27 1798 2504 1798 2474.73 1798 2451 1774.27 2451 1745Z" fill="#FF0000" fill-rule="evenodd"/><path d="M2434.17 1534.83C2441.94 1542.6 2441.94 1555.21 2434.17 1562.96L2316.96 1680.17C2309.19 1687.94 2296.6 1687.94 2288.83 1680.17 2281.06 1672.4 2281.06 1659.81 2288.83 1652.04L2406.04 1534.83C2413.78 1527.06 2426.4 1527.06 2434.17 1534.83Z" fill="#FF0000" fill-rule="evenodd"/><path d="M2255 1680.5C2255 1662 2270 1647 2288.5 1647 2307 1647 2322 1662 2322 1680.5 2322 1699 2307 1714 2288.5 1714 2270 1714 2255 1699 2255 1680.5Z" fill="#FF0000" fill-rule="evenodd"/><path d="M2400 1535C2400 1516.22 2415.22 1501 2434 1501 2452.78 1501 2468 1516.22 2468 1535 2468 1553.78 2452.78 1569 2434 1569 2415.22 1569 2400 1553.78 2400 1535Z" fill="#FF0000" fill-rule="evenodd"/><path d="M2269 1680.5C2269 1669.73 2277.73 1661 2288.5 1661 2299.27 1661 2308 1669.73 2308 1680.5 2308 1691.27 2299.27 1700 2288.5 1700 2277.73 1700 2269 1691.27 2269 1680.5Z" fill="#E22B00" fill-rule="evenodd"/><path d="M2415 1535C2415 1524.51 2423.51 1516 2434 1516 2444.49 1516 2453 1524.51 2453 1535 2453 1545.49 2444.49 1554 2434 1554 2423.51 1554 2415 1545.49 2415 1535Z" fill="#E22B00" fill-rule="evenodd"/><path d="M2516.67 1670.29C2522.45 1676.01 2522.45 1685.29 2516.67 1690.99L2449.24 1757.71C2443.46 1763.43 2434.12 1763.43 2428.34 1757.71 2422.56 1751.99 2422.56 1742.73 2428.34 1737.01L2495.76 1670.29C2501.52 1664.57 2510.89 1664.57 2516.67 1670.29Z" fill="#E22B00" fill-rule="evenodd"/><path d="M2094.43 1664 1998 1567.75 2441.57 1125 2538 1125 2538 1221.25Z" fill="#CCD6DD" fill-rule="evenodd"/><path d="M2538 1125 2538 1221.25 2095.14 1664 2047 1615.88Z" fill="#9AAAB4" fill-rule="evenodd"/><path d="M1913.25 1736.91C1907.77 1731.43 1904.41 1724.83 1903 1718.23L2004.17 1598.68 2017.7 1585.14C2028.59 1574.25 2048.01 1576.01 2061.09 1589.09L2072.92 1600.9C2085.99 1613.97 2087.75 1633.38 2076.86 1644.26L2062.56 1658.56 1943.86 1759C1937.2 1757.61 1930.58 1754.23 1925.06 1748.73L1913.25 1736.91Z" fill="#E22B00" fill-rule="evenodd"/><path d="M1913.25 1737.18C1907.77 1731.7 1904.41 1725.1 1903 1718.49L1928.9 1687.87 1943.13 1759C1936.74 1757.51 1930.37 1754.31 1925.08 1749L1913.25 1737.18ZM1977.13 1630.87 1994.27 1716.62 1969.95 1737.2 1954.13 1658.04ZM2004.17 1598.88 2017.7 1585.33C2019.56 1583.47 2021.72 1582.12 2023.99 1581L2042.87 1675.45 2018.55 1696.04 2000.08 1603.69 2004.17 1598.88ZM2050.51 1581.73C2054.28 1583.57 2057.89 1586.08 2061.09 1589.3L2072.92 1601.12C2077.82 1606.02 2081.12 1611.82 2082.78 1617.72 2085.52 1627.57 2083.67 1637.71 2076.86 1644.5L2065.36 1656.01 2050.51 1581.73C2050.51 1581.71 2050.51 1581.71 2050.51 1581.73Z" fill="#FF0000" fill-rule="evenodd"/><path d="M1864 1745C1864 1715.73 1887.73 1692 1917 1692 1946.27 1692 1970 1715.73 1970 1745 1970 1774.27 1946.27 1798 1917 1798 1887.73 1798 1864 1774.27 1864 1745Z" fill="#FF0000" fill-rule="evenodd"/><path d="M1986.83 1534.83C1979.06 1542.6 1979.06 1555.21 1986.83 1562.96L2104.04 1680.17C2111.81 1687.94 2124.4 1687.94 2132.17 1680.17 2139.94 1672.4 2139.94 1659.81 2132.17 1652.04L2014.96 1534.83C2007.22 1527.06 1994.6 1527.06 1986.83 1534.83Z" fill="#FF0000" fill-rule="evenodd"/><path d="M2098 1680.5C2098 1662 2113.22 1647 2132 1647 2150.78 1647 2166 1662 2166 1680.5 2166 1699 2150.78 1714 2132 1714 2113.22 1714 2098 1699 2098 1680.5Z" fill="#FF0000" fill-rule="evenodd"/><path d="M1953 1535C1953 1516.22 1968 1501 1986.5 1501 2005 1501 2020 1516.22 2020 1535 2020 1553.78 2005 1569 1986.5 1569 1968 1569 1953 1553.78 1953 1535Z" fill="#FF0000" fill-rule="evenodd"/><path d="M2113 1680.5C2113 1669.73 2121.51 1661 2132 1661 2142.49 1661 2151 1669.73 2151 1680.5 2151 1691.27 2142.49 1700 2132 1700 2121.51 1700 2113 1691.27 2113 1680.5Z" fill="#E22B00" fill-rule="evenodd"/><path d="M1967 1535C1967 1524.51 1975.73 1516 1986.5 1516 1997.27 1516 2006 1524.51 2006 1535 2006 1545.49 1997.27 1554 1986.5 1554 1975.73 1554 1967 1545.49 1967 1535Z" fill="#E22B00" fill-rule="evenodd"/><path d="M1904.29 1670.29C1898.57 1676.01 1898.57 1685.29 1904.29 1690.99L1971.02 1757.71C1976.74 1763.43 1985.99 1763.43 1991.71 1757.71 1997.43 1751.99 1997.43 1742.73 1991.71 1737.01L1924.98 1670.29C1919.28 1664.57 1910.01 1664.57 1904.29 1670.29Z" fill="#E22B00" fill-rule="evenodd"/><path d="M2367 1199.6 2373.09 1203.45C2377.94 1208 2380.94 1214.29 2380.94 1221.23 2380.94 1235.11 2368.94 1246.37 2354.13 1246.37 2346.73 1246.37 2340.02 1243.56 2335.17 1239.01L2332.84 1233.73ZM2530.45 1190.7 2538 1192.13 2538 1221.23 2520.17 1239.04 2520.02 1239.01C2510.39 1235.19 2503.64 1226.26 2503.64 1215.84 2503.64 1201.96 2515.65 1190.7 2530.45 1190.7ZM2022.87 1168.51 2053.98 1199.58 2049.38 1210C2044.53 1214.55 2037.83 1217.36 2030.42 1217.36 2015.61 1217.36 2003.61 1206.1 2003.61 1192.22 2003.61 1181.8 2010.36 1172.87 2019.99 1169.05ZM2441.68 1125 2538 1125 2538 1125 2538 1178.17 2514.5 1193.03C2504.71 1196.91 2493.94 1199.06 2482.63 1199.06L2475.85 1198.42 2480.02 1207.85C2480.02 1221.73 2468.01 1232.99 2453.2 1232.99 2438.4 1232.99 2426.39 1221.73 2426.39 1207.85 2426.39 1200.9 2429.39 1194.62 2434.25 1190.07L2440.17 1186.33 2424.74 1176.57 2410.24 1156.41ZM1954.44 1125 1979.32 1125 1999.26 1144.92 1996.42 1151.35C1991.57 1155.9 1984.87 1158.71 1977.47 1158.71 1962.66 1158.71 1950.65 1147.45 1950.65 1133.57ZM1883 1125 1927.35 1125 1940.31 1133.2C1955.13 1147.09 1964.29 1166.28 1964.29 1187.48L1960.62 1204.55 1966.57 1203.42C1981.38 1203.42 1993.38 1214.67 1993.38 1228.56 1993.38 1242.45 1981.38 1253.7 1966.57 1253.7 1959.17 1253.7 1952.46 1250.89 1947.61 1246.34L1943.58 1237.22 1940.31 1241.77 1917.81 1256 1883 1221.23Z" fill="#FF0000" fill-rule="evenodd"/></g></svg>
